chart-box-multiple.svg

<svg fill="currentColor" viewBox="0 0 24 24"><path d="M4 20h12v2H4c-1.1 0-2-.9-2-2V7h2m18-3v12c0 1.1-.9 2-2 2H8c-1.1 0-2-.9-2-2V4c0-1.1.9-2 2-2h12c1.1 0 2 .9 2 2M12 8h-2v6h2m3-8h-2v8h2m3-3h-2v3h2Z"/></svg>

<svg  viewBox="0 0 24 24" fill="currentColor"><path  d="M4 20H16V22H4C2.9 22 2 21.1 2 20V7H4M22 4V16C22 17.1 21.1 18 20 18H8C6.9 18 6 17.1 6 16V4C6 2.9 6.9 2 8 2H20C21.1 2 22 2.9 22 4M12 8H10V14H12M15 6H13V14H15M18 11H16V14H18Z"/></svg>
